X:28
T:Ländler aus Maria Taferl #2
M:3/4
L:1/8
C:trad
S:Sonnleithnersammlung 1819
B:Pichler/Fritz: "Wer tanzt nach meiner Pfeife ?"
N:
K:G
df|g2 B2 e2 |d2 G2 [D2A2]|[G4B4]  df|g2 B2 e2 |d2 G2 AD|[B,4G4]  :|
|:AG|GGGBAc|B2 G2 AG|BBB2 cA|d4   AG|GGGBAc|B2 g2 e2 |dd G2 AD|[B,4G4]
:|
